Suru++-Ubuntu/apps/symbolic/skype-symbolic.svg

<svg width="16" height="16" version="1.1" viewBox="0 0 16 16" xmlns="http://www.w3.org/2000/svg">
 <path d="m4.5 0.5a3.9999998 3.9999998 0 0 0-4 4 3.9999998 3.9999998 0 0 0 1.0546875 2.7011719 6.4999995 6.4999995 0 0 0-0.0546875 0.7988281 6.4999995 6.4999995 0 0 0 6.5 6.5 6.4999995 6.4999995 0 0 0 0.7988281-0.056641 3.9999998 3.9999998 0 0 0 2.7011719 1.056641 3.9999998 3.9999998 0 0 0 4-4 3.9999998 3.9999998 0 0 0-1.054688-2.7011719 6.4999995 6.4999995 0 0 0 0.054688-0.7988281 6.4999995 6.4999995 0 0 0-6.5-6.5 6.4999995 6.4999995 0 0 0-0.7988281 0.0566406 3.9999998 3.9999998 0 0 0-2.7011719-1.0566406zm3.3730469 3.5c0.4439805 1.334e-4 0.5229383 0.0058294 0.7949219 0.0683594 1.1745035 0.2683806 1.9965482 0.9217345 2.0292972 1.6191406 0.0048 0.1059347-0.008931 0.2308231-0.025391 0.2851562-0.04031 0.1312906-0.174959 0.2899129-0.322266 0.3730469-0.107164 0.06047-0.152456 0.0683594-0.3535152 0.0683594-0.1794769 0-0.2466967-0.0126044-0.3222657-0.0527344-0.053099-0.0280021-0.2465652-0.2115821-0.4257812-0.40625-0.3630332-0.3943374-0.504134-0.490502-0.8769531-0.5957031-0.2558902-0.0722851-0.795287-0.0743169-1.0371094-0.0097656-0.4768864 0.1274235-0.7421396 0.4361645-0.7402344 0.8652344 0.00123 0.2762915 0.1444408 0.4863134 0.4570312 0.640625 0.2335739 0.1152234 0.371566 0.1530696 1.4257813 0.40625 0.4822727 0.1158457 0.9708227 0.2417118 1.0859375 0.2851562 0.870607 0.3286031 1.332333 0.9183961 1.423828 1.8007812 0.07221 0.6961598-0.136719 1.3509568-0.572266 1.8164058-0.375652 0.401447-0.8993941 0.654917-1.5996089 0.779297-0.2725036 0.04829-1.0389178 0.075089-1.328125 0.042969-1.063469-0.118012-1.8662796-0.537141-2.2695312-1.185547-0.1415898-0.227667-0.2167969-0.476012-0.2167969-0.701172 0-0.2950236 0.1055631-0.4939997 0.3222656-0.6230465 0.115093-0.06871 0.1454231-0.078125 0.3535156-0.078125 0.3258664 0 0.4181344 0.0680637 0.7714844 0.5371094 0.3670192 0.4872931 0.6373391 0.6831661 1.0703125 0.7792971 0.7786378 0.172778 1.5290156-0.09211 1.7714844-0.623047 0.056862-0.1245561 0.0725476-0.1746174 0.0722656-0.3632814-3.422e-4 -0.1891469-0.016262-0.2406896-0.0722656-0.3554687-0.0730663-0.1497755-0.2185326-0.2950492-0.3789063-0.3710938-0.0586809-0.0276889-0.6087438-0.1899562-1.2226562-0.3554687-0.6139121-0.1654904-1.2072778-0.3312905-1.3125-0.3730469-0.7514976-0.2979352-1.1540675-0.7383181-1.3027344-1.4003906-0.070656-0.3146249-0.071897-0.8133979 0-1.1074219 0.2244996-0.9180531 0.9170187-1.4879336 2.0683594-1.7128906 0.182462-0.03569 0.3583736-0.0528244 0.7324219-0.0527344z" style="fill:#808080"/>
</svg>

<svg xmlns="http://www.w3.org/2000/svg" width="16" height="16" version="1.1" viewBox="0 0 16 16">
 <g>
  <path style="fill:#808080" d="M 4.5 0.5 A 3.9999998 3.9999998 0 0 0 0.5 4.5 A 3.9999998 3.9999998 0 0 0 1.5546875 7.2011719 A 6.4999995 6.4999995 0 0 0 1.5 8 A 6.4999995 6.4999995 0 0 0 8 14.5 A 6.4999995 6.4999995 0 0 0 8.7988281 14.443359 A 3.9999998 3.9999998 0 0 0 11.5 15.5 A 3.9999998 3.9999998 0 0 0 15.5 11.5 A 3.9999998 3.9999998 0 0 0 14.445312 8.7988281 A 6.4999995 6.4999995 0 0 0 14.5 8 A 6.4999995 6.4999995 0 0 0 8 1.5 A 6.4999995 6.4999995 0 0 0 7.2011719 1.5566406 A 3.9999998 3.9999998 0 0 0 4.5 0.5 z M 7.8730469 4 C 8.3170274 4.0001334 8.3959852 4.0058294 8.6679688 4.0683594 C 9.8424723 4.33674 10.664517 4.9900939 10.697266 5.6875 C 10.702066 5.7934347 10.688335 5.9183231 10.671875 5.9726562 C 10.631565 6.1039468 10.496916 6.2625691 10.349609 6.3457031 C 10.242445 6.4061731 10.197153 6.4140625 9.9960938 6.4140625 C 9.8166169 6.4140625 9.7493971 6.4014581 9.6738281 6.3613281 C 9.6207291 6.333326 9.4272629 6.149746 9.2480469 5.9550781 C 8.8850137 5.5607407 8.7439129 5.4645761 8.3710938 5.359375 C 8.1152036 5.2870899 7.5758068 5.2850581 7.3339844 5.3496094 C 6.857098 5.4770329 6.5918448 5.7857739 6.59375 6.2148438 C 6.59498 6.4911353 6.7381908 6.7011572 7.0507812 6.8554688 C 7.2843551 6.9706922 7.4223472 7.0085384 8.4765625 7.2617188 C 8.9588352 7.3775645 9.4473852 7.5034306 9.5625 7.546875 C 10.433107 7.8754781 10.894833 8.4652711 10.986328 9.3476562 C 11.058538 10.043816 10.849609 10.698613 10.414062 11.164062 C 10.03841 11.565509 9.5146679 11.818979 8.8144531 11.943359 C 8.5419495 11.991649 7.7755353 12.018448 7.4863281 11.986328 C 6.4228591 11.868316 5.6200485 11.449187 5.2167969 10.800781 C 5.0752071 10.573114 5 10.324769 5 10.099609 C 5 9.8045854 5.1055631 9.6056093 5.3222656 9.4765625 C 5.4373586 9.4078525 5.4676887 9.3984375 5.6757812 9.3984375 C 6.0016476 9.3984375 6.0939156 9.4665012 6.4472656 9.9355469 C 6.8142848 10.42284 7.0846047 10.618713 7.5175781 10.714844 C 8.2962159 10.887622 9.0465937 10.622734 9.2890625 10.091797 C 9.3459245 9.9672409 9.3616101 9.9171796 9.3613281 9.7285156 C 9.3609859 9.5393687 9.3450661 9.487826 9.2890625 9.3730469 C 9.2159962 9.2232714 9.0705299 9.0779977 8.9101562 9.0019531 C 8.8514753 8.9742642 8.3014124 8.8119969 7.6875 8.6464844 C 7.0735879 8.480994 6.4802222 8.3151939 6.375 8.2734375 C 5.6235024 7.9755023 5.2209325 7.5351194 5.0722656 6.8730469 C 5.0016096 6.558422 5.0003686 6.059649 5.0722656 5.765625 C 5.2967652 4.8475719 5.9892843 4.2776914 7.140625 4.0527344 C 7.323087 4.0170444 7.4989986 3.99991 7.8730469 4 z"/>
 </g>
</svg>
